X:1
T:The Love of God (Keeling)
T:The Love of God (Keeling)
T:Barney Elliott Warren
T:George P. Keeling, 1897
T:Public Domain Courtesy of the Cyber Hymnal™
T:Public Domain Courtesy of the Cyber Hymnal™
C:Barney Elliott Warren
Z:Public Domain
Z:Courtesy of the Cyber Hymnal™
%%score ( 1 2 ) ( 3 4 )
L:1/8
Q:1/4=100
M:9/8
K:Ab
V:1 treble 
V:2 treble 
V:3 bass 
V:4 bass 
V:1
 [CE]3 | ([Ec][DB])[Fd] [Ec]3 [CA]3 | ([CE][=B,=D])[_DF] [CE]3 [CE]3 | (dc)[Ed] [EB]3 [EB]3 | %4
w: 1.~The|love * of God flows|deep * and wide Thro’|Christ * who bled for|
w: 2.~Tho’|men * have gone in|sin * so deep That|hell * would blush and|
w: 3.~The|heart * that is so|hard * in sin That|this * great love can|
w: 4.~But|tho’ * your sins be|black * and deep, And|aw- * ful dark- ness|
 (BF)[_DA] [EG]3 ([DF][CE][B,E]) | ([Ec][DB])[Fd] [Ec]3 [CA]3 | ([CE][=B,=D])[_DF] [CE]3 [CA]3 | %7
w: us * and died; Its * *|widen- * ing stretch we|can- * not see, It|
w: an- * gels weep, Yet, * *|God * so loved each|guilt- * y one He|
w: nev- * er win, Is * *|tru- * ly fit for|no- * thing less Than|
w: ’round * you creep, Yet, * *|God * so loves your|guilt- * y soul, He’ll|
 (AB)[Ec] [_Ge]3 [Fd]3 | [Ec]2 [DB] !fermata![CA]2 z ||"^Refrain" [CE]3 | [CE]6 [CE]3 | %11
w: reach- * es far be-|yond the sea.|||
w: gave * for them His|on- ly Son.|Oh|love, oh,|
w: end- * less hell and|wretch- ed- ness.|||
w: save * you from all|hell’s con- trol.|||
 [DF]6 [DF]3 | [CE]2 [EA] ([Ac]2 [EB]) [FA]3 | [GB]3- [GB]2 z d3 x | [Ec]3 [EA]3 (BA)[DF] | %15
w: ||||
w: love, oh,|love of God * so|free; * He|proved His love * for|
w: ||||
w: ||||
 [CE]2 [CA] [Ec]3 [_Ge]3 | [Fd]2 [FB] [Ec]3 [DB]3 | [CA]3- [CA]2 z |] %18
w: |||
w: you and me Up-|on dark Cal- va-|ry. *|
w: |||
w: |||
V:2
 x3 | x9 | x9 | E2 x7 | =D2 x7 | x9 | x9 | E2 x7 | x6 || x3 | x9 | x9 | x9 | x6 (G2 E) x | %14
 x6 F2 x | x9 | x9 | x6 |] %18
V:3
 [A,,A,]3 | [A,,A,]2 [A,,A,] [A,,A,]3 [A,,E,]3 | [A,,A,]2 [A,,A,] [A,,A,]3 [A,,A,]3 | %3
w: |||
 (B,A,)[E,B,] [E,G,]3 [E,G,]3 | (F,B,)[B,,B,] [E,B,]3 (B,A,G,) | %5
w: ||
 [A,,A,]2 [A,,A,] [A,,A,]3 [A,,E,]3 | [A,,A,]2 [A,,A,] [A,,A,]3 [A,,A,]3 | %7
w: ||
 ([C,A,][B,,G,])[A,,A,] [C,A,]3 [D,A,]3 | [E,A,]2 [E,G,] !fermata![A,,A,]2 z || [A,,A,]3 | %10
w: ||Oh,|
 [A,,A,]2 [A,,A,] [A,,A,]3 [A,,A,]3 | [D,A,]2 [D,A,] [D,A,]3 [D,A,]3 | [A,,A,]2 [A,,C] E3 [F,=D]3 | %13
w: love of God, oh,|love of God, *|* * pure *|
 E4 E,2 z (B,2 G,) | [A,,A,]3 [C,A,]3 [D,A,]2 [D,A,] | [A,,A,]2 [A,,A,] [A,,A,]3 [C,A,]3 | %16
w: and free; * *|||
 [D,A,]2 [D,A,] [E,A,]3 [E,G,]3 | [A,,A,]3- [A,,A,]2 z |] %18
w: ||
V:4
 x3 | x9 | x9 | E,2 x7 | B,,2 x3 E,3 x | x9 | x9 | x9 | x6 || x3 | x9 | x9 | x3 (A,2 G,) x3 | %13
 E,2 E, E,3 x4 | x9 | x9 | x9 | x6 |] %18

